tools/download-figma-icons/icons/outlined-large/multi-lightning.svg

<svg width="64" height="64" viewBox="0 0 64 64" fill="none" xmlns="http://www.w3.org/2000/svg">
<path fill-rule="evenodd" clip-rule="evenodd" d="M24.2509 60.66C24.0009 61.03 23.7109 61.03 23.5009 60.97C23.3609 60.93 23.0119 60.77 23.0119 60.23V38.5012C23.0119 37.6722 22.3419 37.0012 21.5119 37.0012H3.76201C3.37102 37.0012 3.11102 36.8422 3.03102 36.6912C2.95102 36.5522 3.04202 36.3612 3.12102 36.2522L25.7508 3.34443C25.9318 3.07343 26.1418 3.00343 26.3208 3.00343C26.3918 3.00343 26.4608 3.01443 26.5218 3.03343C26.6708 3.08343 27.0218 3.24343 27.0218 3.77343V24.4923C27.0218 25.3223 27.6908 25.9923 28.5218 25.9923H35.4008L30.5218 32.6512C29.9108 33.5312 29.8308 34.5822 30.3018 35.4722C30.8018 36.4112 31.8308 37.0012 32.9908 37.0012H40.3007L24.2509 60.66ZM45.6207 34.5122C45.3517 34.2012 44.9507 34.0022 44.5007 34.0022H42.3307H33.2508L39.1107 25.9923L41.3117 22.9923L47.8907 14.0033C47.9207 13.9933 47.9907 14.0033 48.0007 13.9633V23.4623V27.5022C48.0007 28.2822 48.5907 28.9222 49.3607 28.9922C49.4007 29.0022 49.4507 29.0022 49.5007 29.0022H60.9506C60.9796 29.0422 61.0106 29.1222 61.0306 29.1322L46.1107 50.0011C46.0807 50.0111 46.0107 50.0011 46.0007 50.0411V35.5022C46.0007 35.1212 45.8607 34.7712 45.6207 34.5122ZM63.6206 27.6412C63.0906 26.6323 62.0906 26.0023 61.0106 26.0023H51.0007V13.9533C51.0007 12.6524 50.1707 11.5534 48.8807 11.1534C47.5807 10.7434 46.1907 11.2034 45.4607 12.2634L37.6018 22.9923H30.0218V3.77343C30.0218 2.09444 28.9608 0.64345 27.3918 0.163453C25.8118 -0.316543 24.1909 0.283453 23.2619 1.66344L0.642038 34.5712C-0.107956 35.6812 -0.207955 37.0122 0.38204 38.1112C1.01204 39.2712 2.30203 40.0011 3.76201 40.0011H20.0119V60.23C20.0119 61.92 21.0709 63.37 22.6309 63.84C22.9909 63.95 23.3519 64 23.7109 64C24.9009 64 26.0308 63.4 26.7408 62.33L43.0007 38.3612V50.0511C43.0007 51.3501 43.8307 52.4501 45.1207 52.8501C45.4407 52.9501 45.7607 53.001 46.0807 53.001C47.0617 53.001 47.9907 52.5411 48.5507 51.7301L63.4796 30.8512C64.1206 29.9222 64.1706 28.6922 63.6206 27.6412Z" fill="black"/>
</svg>

<svg xmlns="http://www.w3.org/2000/svg" width="64" height="64" fill="none" viewBox="0 0 64 64"><path fill="currentColor" fill-rule="evenodd" d="M24.25 60.66c-.25.37-.54.37-.75.31-.14-.04-.488-.2-.488-.74V38.501c0-.829-.67-1.5-1.5-1.5H3.762c-.391 0-.651-.159-.731-.31-.08-.139.011-.33.09-.439l22.63-32.908c.18-.27.39-.34.57-.34.07 0 .14.01.2.03.15.05.5.21.5.74v20.718c0 .83.67 1.5 1.5 1.5h6.88l-4.88 6.66c-.61.88-.69 1.93-.22 2.82.5.94 1.53 1.53 2.69 1.53h7.31zm21.37-26.148a1.48 1.48 0 0 0-1.12-.51H33.25l5.86-8.01 2.202-3 6.579-8.989c.03-.01.1 0 .11-.04v13.54c0 .78.59 1.42 1.36 1.49.04.01.09.01.14.01h11.45c.029.04.06.12.08.13L46.11 50c-.03.01-.1 0-.11.04V35.502c0-.38-.14-.73-.38-.99m18-6.87c-.53-1.01-1.53-1.64-2.61-1.64H51V13.953c0-1.3-.83-2.4-2.12-2.8-1.3-.41-2.69.05-3.42 1.11l-7.858 10.73h-7.58V3.772c0-1.679-1.061-3.13-2.63-3.61-1.58-.48-3.201.12-4.13 1.5L.642 34.571c-.75 1.11-.85 2.441-.26 3.54.63 1.16 1.92 1.89 3.38 1.89h16.25V60.23c0 1.69 1.059 3.14 2.619 3.61.36.11.72.16 1.08.16 1.19 0 2.32-.6 3.03-1.67L43 38.361v11.69c0 1.3.83 2.4 2.12 2.8q.48.15.96.15c.98 0 1.91-.46 2.47-1.27L63.48 30.85c.64-.929.69-2.159.14-3.21" clip-rule="evenodd"/></svg>
